src/iconfont/vectors/rh_icon/rh-icon-office-building-smb.svg

<?xml version="1.0" encoding="utf-8"?>
<!-- Generated by IcoMoon.io -->
<!DOCTYPE svg PUBLIC "-//W3C//DTD SVG 1.1//EN" "http://www.w3.org/Graphics/SVG/1.1/DTD/svg11.dtd">
<svg version="1.1" xmlns="http://www.w3.org/2000/svg" xmlns:xlink="http://www.w3.org/1999/xlink" width="32" height="32" viewBox="0 0 32 32">
<g>
</g>
	<path d="M24.369 8.521h-16.738c-0.169 0-0.306 0.137-0.306 0.306v14.346c0 0.17 0.138 0.306 0.306 0.306h16.738c0.169 0 0.306-0.137 0.306-0.306v-14.345c0-0.169-0.137-0.307-0.306-0.307zM18.188 18.908v-0.086c0-0.127-0.103-0.23-0.23-0.23h-3.915c-0.127 0-0.23 0.103-0.23 0.23v0.086h-5.875v-1.33h16.124v1.33h-5.874zM20.869 19.214v2.267h-2.681v-2.267h2.681zM14.273 22.914v-3.863h1.498v3.863h-1.498zM17.728 22.914h-1.498v-3.863h1.498v3.863zM13.813 21.481h-2.606v-2.267h2.606v2.267zM7.938 19.214v0h2.963v2.267h-2.963v-2.267zM7.938 13.256v0h16.124v1.358h-16.124v-1.358zM7.938 10.794v0h3.059v2.156h-3.059v-2.156zM11.304 12.95v-2.156h2.918v2.156h-2.918zM14.527 12.95v-2.156h3.218v2.156h-3.218zM18.052 12.95v-2.156h2.912v2.156h-2.912zM21.167 14.921h2.895v2.35h-2.887v-2.309c0-0.014-0.004-0.028-0.008-0.041zM24.062 12.95h-2.791v-2.156h2.791v2.156zM17.949 14.921h2.928c-0.004 0.013-0.008 0.026-0.008 0.041v2.309h-2.912v-2.309c0-0.014-0.004-0.027-0.008-0.041zM14.424 14.921h3.234c-0.004 0.013-0.008 0.026-0.008 0.041v2.309h-3.218v-2.309c0-0.014-0.004-0.027-0.008-0.041zM11.199 14.921h2.934c-0.003 0.013-0.008 0.026-0.008 0.041v2.309h-2.918v-2.309c0-0.014-0.004-0.027-0.008-0.041zM7.938 14.921h2.971c-0.004 0.013-0.008 0.026-0.008 0.041v2.309h-2.963v-2.35zM21.175 19.214h2.887v2.267h-2.887v-2.267zM7.938 9.134h16.124v1.353l-16.124-0 0-1.353zM7.938 21.787v0h5.875v1.079l-5.875-0v-1.079zM24.062 22.866h-5.875v-1.079h5.875l-0 1.079zM16.699 21.384c0.085 0 0.153-0.069 0.153-0.153v-0.248c0-0.085-0.069-0.153-0.153-0.153s-0.153 0.069-0.153 0.153v0.248c0 0.085 0.069 0.153 0.153 0.153zM15.269 20.829c-0.085 0-0.153 0.069-0.153 0.153v0.248c0 0.085 0.069 0.153 0.153 0.153 0.084 0 0.153-0.069 0.153-0.153v-0.248c0-0.085-0.069-0.153-0.153-0.153z" fill="#000000" />
</svg>

<?xml version="1.0" encoding="utf-8"?>
<!-- Generator: Adobe Illustrator 21.1.0, SVG Export Plug-In . SVG Version: 6.00 Build 0)  -->
<!DOCTYPE svg PUBLIC "-//W3C//DTD SVG 1.1//EN" "http://www.w3.org/Graphics/SVG/1.1/DTD/svg11.dtd">
<svg version="1.1" id="Layer_1" xmlns="http://www.w3.org/2000/svg" xmlns:xlink="http://www.w3.org/1999/xlink" x="0px" y="0px"
	 viewBox="0 0 32 32" style="enable-background:new 0 0 32 32;" xml:space="preserve">
<path d="M24.37,8.52H7.63c-0.17,0-0.31,0.14-0.31,0.31v14.35c0,0.17,0.14,0.31,0.31,0.31h16.74c0.17,0,0.31-0.14,0.31-0.31V8.83
	C24.67,8.66,24.54,8.52,24.37,8.52z M18.19,18.91v-0.09c0-0.13-0.1-0.23-0.23-0.23h-3.91c-0.13,0-0.23,0.1-0.23,0.23v0.09H7.94
	v-1.33h16.12v1.33H18.19z M20.87,19.21v2.27h-2.68v-2.27H20.87z M14.27,22.91v-3.86h1.5v3.86C15.77,22.91,14.27,22.91,14.27,22.91z
	 M17.73,22.91h-1.5v-3.86h1.5C17.73,19.05,17.73,22.91,17.73,22.91z M13.81,21.48h-2.61v-2.27h2.61V21.48z M7.94,19.21L7.94,19.21
	h2.96v2.27H7.94C7.94,21.48,7.94,19.21,7.94,19.21z M7.94,13.26L7.94,13.26h16.12v1.36H7.94C7.94,14.61,7.94,13.26,7.94,13.26z
	 M7.94,10.79L7.94,10.79H11v2.16H7.94C7.94,12.95,7.94,10.79,7.94,10.79z M11.3,12.95v-2.16h2.92v2.16H11.3z M14.53,12.95v-2.16
	h3.22v2.16H14.53z M18.05,12.95v-2.16h2.91v2.16H18.05z M21.17,14.92h2.9v2.35h-2.89v-2.31C21.17,14.95,21.17,14.93,21.17,14.92z
	 M24.06,12.95h-2.79v-2.16h2.79V12.95z M17.95,14.92h2.93c0,0.01-0.01,0.03-0.01,0.04v2.31h-2.91v-2.31
	C17.96,14.95,17.95,14.93,17.95,14.92z M14.42,14.92h3.23c0,0.01-0.01,0.03-0.01,0.04v2.31h-3.22v-2.31
	C14.43,14.95,14.43,14.93,14.42,14.92z M11.2,14.92h2.93c0,0.01-0.01,0.03-0.01,0.04v2.31h-2.92v-2.31
	C11.21,14.95,11.2,14.93,11.2,14.92z M7.94,14.92h2.97c0,0.01-0.01,0.03-0.01,0.04v2.31H7.94C7.94,17.27,7.94,14.92,7.94,14.92z
	 M21.17,19.21h2.89v2.27h-2.89V19.21z M7.94,9.13h16.12v1.35H7.94C7.94,10.49,7.94,9.13,7.94,9.13z M7.94,21.79L7.94,21.79h5.87
	v1.08H7.94C7.94,22.87,7.94,21.79,7.94,21.79z M24.06,22.87h-5.88v-1.08h5.88V22.87z M16.7,21.38c0.08,0,0.15-0.07,0.15-0.15v-0.25
	c0-0.08-0.07-0.15-0.15-0.15s-0.15,0.07-0.15,0.15v0.25C16.55,21.32,16.62,21.38,16.7,21.38z M15.27,20.83
	c-0.09,0-0.15,0.07-0.15,0.15v0.25c0,0.08,0.07,0.15,0.15,0.15s0.15-0.07,0.15-0.15v-0.25C15.42,20.9,15.35,20.83,15.27,20.83z"/>
</svg>
